X:142
T:Who's Afraid THO4.142
M:6/8
L:1/8
Z:vmp. Peter Dunk 2010/11.from a transcription by Fynn Titford-Mock 2007
B:Thompson's Compleat Collection of 200 Favourite Country Dances Volume IV.
Q:3/8=100
K:C
G|c2 c d2 d|e2 e f2 f|g>fe f>ed|c2 c c2::e/f/|g2 g gag|f2 f fgf|
e2 e efe|d2 d d2 e/f/|g2 g gag|f2 f fgf|efe dcB|c2 c c2:|
